src/images/svg/symbols/aud-basket.svg

<svg width="32" height="32" viewBox="0 0 32 32" fill="none" xmlns="http://www.w3.org/2000/svg">
<path fill-rule="evenodd" clip-rule="evenodd" d="M17 8H15V16H17V8ZM15 6C13.8954 6 13 6.89543 13 8V16C13 17.1046 13.8954 18 15 18H17C18.1046 18 19 17.1046 19 16V8C19 6.89543 18.1046 6 17 6H15ZM11 11H6C5.44772 11 5 11.4477 5 12C5 12.5523 5.44772 13 6 13H11V11ZM21 13L26 13C26.5523 13 27 12.5523 27 12C27 11.4477 26.5523 11 26 11H21V13ZM11 15H6L9.52127 24.6835C9.80868 25.4739 10.5598 26 11.4009 26H20.5991C21.4402 26 22.1913 25.4739 22.4787 24.6835L26 15H21V16C21 18.2091 19.2091 20 17 20V23C17 23.5523 16.5523 24 16 24C15.4477 24 15 23.5523 15 23V20C12.7909 20 11 18.2091 11 16V15ZM21 19C20.4477 19 20 19.4477 20 20V22C20 22.5523 20.4477 23 21 23C21.5523 23 22 22.5523 22 22V20C22 19.4477 21.5523 19 21 19ZM10 20C10 19.4477 10.4477 19 11 19C11.5523 19 12 19.4477 12 20V22C12 22.5523 11.5523 23 11 23C10.4477 23 10 22.5523 10 22V20Z" fill="#D2D3DA"/>
<path d="M28 2H18C17.4477 2 17 2.44772 17 3V9C17 9.55228 17.4477 10 18 10H28C28.5523 10 29 9.55228 29 9V3C29 2.44772 28.5523 2 28 2Z" fill="#0D47A1"/>
<path d="M17.2069 5.99343H17.5663L19.4828 4.71786V5.99343H20.5173V4.71786L22.4337 5.99343H22.7931C22.9074 5.99343 23 5.89931 23 5.78324V5.61652L21.3558 4.52217H23V3.47126H21.3557L23 2.3769V2.21019C23 2.0941 22.9074 2 22.7931 2H22.4337L20.5172 3.27557V2H19.4827V3.27557L17.6292 2.04186C17.4127 2.1109 17.2318 2.26098 17.1203 2.45695L18.6443 3.47126H17V4.52217H18.6443L17 5.61652V5.78324C17 5.89931 17.0926 5.99343 17.2069 5.99343Z" fill="white"/>
<path d="M20.0629 7.1394L20.219 7.66313L20.7195 7.46063C20.7622 7.44335 20.801 7.49282 20.7749 7.53125L20.4692 7.98182L20.9371 8.25304C20.977 8.27618 20.9631 8.33785 20.9173 8.34111L20.3799 8.37923L20.4629 8.91992C20.47 8.96606 20.4139 8.99352 20.3828 8.95911L20.0184 8.55606L19.654 8.95911C19.6229 8.99349 19.5668 8.96604 19.5739 8.91992L19.6568 8.37923L19.1194 8.34111C19.0736 8.33785 19.0597 8.27618 19.0997 8.25304L19.5675 7.98182L19.2618 7.53125C19.2357 7.49282 19.2746 7.44335 19.3173 7.46063L19.8177 7.66313L19.9739 7.1394C19.9873 7.09471 20.0495 7.09471 20.0629 7.1394ZM26.2177 7.90142L26.294 8.15725L26.5385 8.05832C26.5593 8.0499 26.5783 8.07404 26.5655 8.09282L26.4162 8.31294L26.6448 8.44544C26.6643 8.45673 26.6575 8.48687 26.6351 8.48844L26.3726 8.50706L26.4131 8.77118C26.4166 8.79373 26.3892 8.80713 26.374 8.79032L26.196 8.59344L26.0179 8.79032C26.0028 8.80711 25.9754 8.79371 25.9788 8.77118L26.0193 8.50706L25.7568 8.48844C25.7344 8.48687 25.7277 8.45673 25.7472 8.44544L25.9757 8.31294L25.8264 8.09282C25.8136 8.07404 25.8326 8.0499 25.8534 8.05832L26.0979 8.15725L26.1742 7.90142C26.1808 7.87961 26.2112 7.87961 26.2177 7.90142ZM26.8079 5.83897C26.8159 5.81482 26.8495 5.81482 26.8575 5.83897L26.9187 6.02554L27.1123 6.02706C27.1373 6.02728 27.1477 6.05973 27.1276 6.07487L26.9718 6.19171L27.0302 6.37921C27.0378 6.40347 27.0106 6.42354 26.9902 6.40875L26.8327 6.2944L26.6752 6.40875C26.6548 6.42356 26.6276 6.40349 26.6352 6.37921L26.6936 6.19171L26.5378 6.07487C26.5177 6.05975 26.5281 6.02728 26.5531 6.02706L26.7467 6.02554L26.8079 5.83897ZM24.5167 5.37925L24.593 5.63509L24.8375 5.53618C24.8583 5.52775 24.8773 5.5519 24.8645 5.57068L24.7152 5.7908L24.9438 5.9233C24.9633 5.93459 24.9565 5.96473 24.9341 5.9663L24.6716 5.98492L24.7121 6.24904C24.7156 6.27159 24.6882 6.28499 24.673 6.26818L24.495 6.0713L24.317 6.26818C24.3018 6.28497 24.2744 6.27156 24.2778 6.24904L24.3184 5.98492L24.0559 5.9663C24.0335 5.96471 24.0267 5.93459 24.0462 5.9233L24.2747 5.7908L24.1254 5.57068C24.1127 5.5519 24.1317 5.52775 24.1525 5.53618L24.397 5.63509L24.4733 5.37925C24.4798 5.35742 24.5102 5.35742 24.5167 5.37925ZM27.827 4.53852L27.9033 4.79435L28.1478 4.69544C28.1686 4.68702 28.1876 4.71116 28.1749 4.72994L28.0256 4.95006L28.2541 5.08256C28.2736 5.09385 28.2668 5.12399 28.2444 5.12556L27.9819 5.14418L28.0225 5.4083C28.0259 5.43085 27.9985 5.44425 27.9833 5.42744L27.8053 5.23056L27.6273 5.42744C27.6121 5.44423 27.5847 5.43082 27.5882 5.4083L27.6287 5.14418L27.3662 5.12556C27.3438 5.12397 27.3371 5.09385 27.3566 5.08256L27.5851 4.95006L27.4358 4.72994C27.423 4.71116 27.442 4.68702 27.4628 4.69544L27.7073 4.79435L27.7836 4.53852C27.7901 4.51671 27.8205 4.51671 27.827 4.53852ZM26.2177 3.41556L26.294 3.6714L26.5385 3.57249C26.5593 3.56406 26.5783 3.58821 26.5655 3.60699L26.4162 3.82711L26.6448 3.95961C26.6643 3.9709 26.6575 4.00104 26.6351 4.00261L26.3726 4.02123L26.4131 4.28535C26.4166 4.3079 26.3892 4.3213 26.374 4.30449L26.196 4.10761L26.0179 4.30449C26.0028 4.32128 25.9754 4.30787 25.9788 4.28535L26.0193 4.02123L25.7568 4.00261C25.7344 4.00102 25.7277 3.9709 25.7472 3.95961L25.9757 3.82711L25.8264 3.60699C25.8136 3.58821 25.8326 3.56406 25.8534 3.57249L26.0979 3.6714L26.1742 3.41556C26.1808 3.39371 26.2112 3.39371 26.2177 3.41556Z" fill="white"/>
<path d="M20.3103 2V3.68145H23V4.31198H20.3103V5.99343H19.6897V4.31198H17V3.68145H19.6897V2H20.3103ZM19.4771 4.52217L17.2459 5.99343H17.2069C17.1453 5.99343 17.0917 5.96486 17.0545 5.92098L17.0297 5.8854L19.097 4.52217H19.4771ZM21.0592 4.52219L22.9967 5.79976C22.9905 5.87683 22.9453 5.94195 22.8794 5.97302L20.6792 4.52219H21.0592ZM17.3424 2.19626L19.2759 3.47126H18.8958L17.1928 2.34824C17.2366 2.29181 17.2868 2.24079 17.3424 2.19626ZM22.7931 2C22.8538 2 22.9066 2.02786 22.9437 2.07068L22.9685 2.1054L20.8973 3.47126H20.5172L22.7483 2H22.7931Z" fill="#F44336"/>
<path fill-rule="evenodd" clip-rule="evenodd" d="M28 2.5H18C17.7239 2.5 17.5 2.72386 17.5 3V9C17.5 9.27614 17.7239 9.5 18 9.5H28C28.2761 9.5 28.5 9.27614 28.5 9V3C28.5 2.72386 28.2761 2.5 28 2.5ZM18 2C17.4477 2 17 2.44772 17 3V9C17 9.55228 17.4477 10 18 10H28C28.5523 10 29 9.55228 29 9V3C29 2.44772 28.5523 2 28 2H18Z" fill="black" fill-opacity="0.04"/>
</svg>

<svg width="32" height="32" fill="none" xmlns="http://www.w3.org/2000/svg"><path fill-rule="evenodd" clip-rule="evenodd" d="M17 8h-2v8h2V8zm-2-2a2 2 0 00-2 2v8a2 2 0 002 2h2a2 2 0 002-2V8a2 2 0 00-2-2h-2zm-4 5H6a1 1 0 100 2h5v-2zm10 2h5a1 1 0 100-2h-5v2zm-10 2H6l3.521 9.683A2 2 0 0011.401 26h9.198a2 2 0 001.88-1.317L26 15h-5v1a4 4 0 01-4 4v3a1 1 0 11-2 0v-3a4 4 0 01-4-4v-1zm10 4a1 1 0 00-1 1v2a1 1 0 102 0v-2a1 1 0 00-1-1zm-11 1a1 1 0 112 0v2a1 1 0 11-2 0v-2z" fill="#D2D3DA"/><path d="M28 2H18a1 1 0 00-1 1v6a1 1 0 001 1h10a1 1 0 001-1V3a1 1 0 00-1-1z" fill="#0D47A1"/><path d="M17.207 5.993h.36l1.916-1.275v1.275h1.034V4.718l1.917 1.275h.36a.209.209 0 00.206-.21v-.166l-1.644-1.095H23v-1.05h-1.644L23 2.376V2.21a.209.209 0 00-.207-.21h-.36l-1.916 1.276V2h-1.034v1.276l-1.854-1.234a.904.904 0 00-.509.415l1.524 1.014H17v1.051h1.644L17 5.617v.166c0 .116.093.21.207.21zM20.063 7.14l.156.523.5-.202c.043-.018.082.032.056.07l-.306.45.468.272c.04.023.026.085-.02.088l-.537.038.083.54c.007.047-.05.075-.08.04l-.365-.403-.364.403c-.031.034-.087.007-.08-.04l.083-.54-.538-.038c-.045-.003-.06-.065-.02-.088l.468-.271-.305-.45c-.026-.04.013-.089.055-.071l.5.202.157-.524a.046.046 0 01.089 0zm6.155.761l.076.256.244-.099c.021-.008.04.016.027.035l-.149.22.229.132c.02.012.012.042-.01.043l-.262.02.04.263c.004.023-.024.036-.039.02l-.178-.198-.178.197c-.015.017-.043.004-.04-.019l.041-.264-.262-.019c-.023-.001-.03-.031-.01-.043l.229-.132-.15-.22c-.012-.019.007-.043.027-.035l.245.1.076-.257a.023.023 0 01.044 0zm.59-2.062a.026.026 0 01.05 0l.06.187.194.001c.025 0 .036.033.016.048l-.156.117.058.187c.008.024-.02.045-.04.03l-.157-.115-.158.115c-.02.015-.047-.006-.04-.03l.059-.187-.156-.117c-.02-.015-.01-.048.015-.048l.194-.001.06-.187zm-2.291-.46l.076.256.244-.099c.021-.008.04.016.027.035l-.149.22.229.132c.02.012.012.042-.01.043l-.262.019.04.264c.004.023-.024.036-.039.02l-.178-.198-.178.197c-.015.017-.043.004-.04-.019l.041-.264-.262-.019c-.023-.001-.03-.031-.01-.043l.229-.132-.15-.22c-.012-.02.007-.043.027-.035l.245.1.076-.257a.023.023 0 01.044 0zm3.31-.84l.076.255.245-.099c.02-.008.04.016.027.035l-.15.22.23.133c.019.01.012.041-.01.043l-.263.018.04.264c.004.023-.023.036-.039.02l-.178-.197-.178.196c-.015.017-.042.004-.039-.019l.04-.264-.262-.018c-.022-.002-.029-.032-.01-.043l.23-.133-.15-.22c-.013-.019.006-.043.027-.035l.244.1.077-.256a.023.023 0 01.043 0zm-1.61-1.123l.077.255.244-.099c.021-.008.04.016.027.035l-.149.22.229.133c.02.01.012.041-.01.043l-.262.018.04.264c.004.023-.024.036-.039.02l-.178-.197-.178.196c-.015.017-.043.004-.04-.019l.041-.264-.262-.018c-.023-.002-.03-.032-.01-.043l.229-.133-.15-.22c-.012-.019.007-.043.027-.035l.245.1.076-.256a.023.023 0 01.044 0z" fill="#fff"/><path d="M20.31 2v1.681H23v.631h-2.69v1.681h-.62V4.312H17v-.63h2.69V2h.62zm-.833 2.522l-2.231 1.471h-.04a.199.199 0 01-.151-.072l-.025-.036 2.067-1.363h.38zm1.582 0L22.997 5.8a.208.208 0 01-.118.173l-2.2-1.45h.38zm-3.717-2.326l1.934 1.275h-.38l-1.703-1.123a.908.908 0 01.15-.152zM22.793 2c.06 0 .114.028.15.07l.025.035-2.07 1.366h-.38L22.747 2h.045z" fill="#F44336"/><path fill-rule="evenodd" clip-rule="evenodd" d="M28 2.5H18a.5.5 0 00-.5.5v6a.5.5 0 00.5.5h10a.5.5 0 00.5-.5V3a.5.5 0 00-.5-.5zM18 2a1 1 0 00-1 1v6a1 1 0 001 1h10a1 1 0 001-1V3a1 1 0 00-1-1H18z" fill="#000" fill-opacity=".04"/></svg>
